!!!COM: Music21
!!!OTL: polka_Ymdaith-Rhosgadfan
!!!OMV: polka_Ymdaith-Rhosgadfan
**kern
*clefG2
*k[f#c#]
*D:
*M2/4
=1
16ff#LL
16ggJJ
=
16aaLL
32aaL
32aaJ
16aa
16aaJJ
4ryy
=
16aaLL
16gg
16ff#
16eeJJ
4ryy
=
16.ddLL
32eeK
16dd
16bJJ
4ryy
=
4a
4ryy
=
16ff#LL
32ff#L
32ff#J
16ff#
16ff#JJ
4ryy
=
16ff#LL
16ff#
16ee
16ddJJ
4ryy
=
8eeL
16.eeL
32ff#JJk
4ryy
!!linebreak:original
=
8eeL
16ff#L
16ggJJ
4ryy
=
16aaLL
32aaL
32aaJ
16aa
16aaJJ
4ryy
=
16aaLL
16gg
16ff#
16eeJJ
4ryy
=
16.ddLL
32eeK
16dd
16bJJ
4ryy
=
8aL
16aL
16ggJJ
4ryy
=
16.ff#LL
32aaK
16gg
16ff#JJ
4ryy
=
16eeLL
32ff#L
32eeJ
16dd
16cc#JJ
4ryy
!!linebreak:original
=
8ddL
16.ddL
32cc#JJk
4ryy
=
8ddL
16cc#L
16ddJJ
4ryy
=||
16eeLL
32eeL
32eeJ
16ee
16eeJJ
4ryy
=
16eeLL
16dd
16cc#
16bJJ
4ryy
=
16.aLL
32bK
16a
16gJJ
4ryy
=
8.f#L
16aJk
4ryy
=
16ddLL
32ddL
32ddJ
16dd
16ddJJ
4ryy
=
16ff#LL
16ff#
16ee
16ddJJ
4ryy
!!linebreak:original
=
8eeL
16.eeL
32ff#JJk
4ryy
=
8eeL
16aaL
16ggJJ
4ryy
=
16.ff#LL
32aaK
16gg
16ff#JJ
4ryy
=
16.eeLL
32ggK
16ff#
16eeJJ
4ryy
=
16.ddLL
32ff#K
16ee
16ddJJ
4ryy
=
8bL
8ggJ
4ryy
=
16.ff#LL
32aaK
16gg
16ff#JJ
4ryy
=
16eeLL
32ff#L
32eeJ
16dd
16cc#JJ
4ryy
!!linebreak:original
=
8ddL
16.ddL
32cc#JJk
4ryy
=
8dd
4.ryy
=||
*-
